X: 4266
T: No sure
N: Pub: J. Walsh, London, 1748
Z: 2012 John Chambers <jc:trillian.mit.edu>
N: The 2nd part has 14 bars.
M: 6/8
L: 1/8
K: G
V: 1
|:\
Bdb {d}c2B | Aca B2A | BDG BdD | BDG BdD |\
Bdb c3 | Aca B2A | Bdg | Ad^c | dAF D3 :|
|:\
ADd B3 | ADc B3 | efg Be^d | eBG E3 |\
ADc B3 | dBb Tc3 | (B/c/d)G (A/B/c)G | FAF D3 |
(B/c/d)G (A/B/c)G | FAF DAc | Bdb dcB | Aca cBA |\
BGE DGF | GDB, G,3 :|
V: 2 clef=bass middle=d
|:\
g3 zzg | f3 zzf | g3 G3 | g3G3 |\
g3 a3 | f2d g2d | g3 a3 | d6 :|
|:\
f3 g3 | f3 g3 | c3 B3 | E2e g2e |\
f3 gdB | G2g afd | g3 c3 | d3 fdf |\
g3 c3 | d3 f3 | g3 G3 | A3 f3 | g2c d2D | G6 :|
%%begintext align
The 1st Man Sets to the 2d Wo. and turn her .|
the 1st Wo. does the same :|
Cross over two Cu. lead up to the top, foot it and cast off .|.
Hands round four with the 3d Cu. Right hand and Left with the 2d Cu. :|:
%%endtext

%%sep 1 1 500
%%sep 1 1 500

